symbolic/24x24/apps/browser360-beta.svg

<svg xmlns="http://www.w3.org/2000/svg" width="24" height="24" version="1">
 <rect style="opacity:0.2" width="20" height="20" x="2" y="2.5" rx="10" ry="10"/>
 <rect style="fill:#e4e4e4" width="20" height="20" x="2" y="2" rx="10" ry="10"/>
 <path style="opacity:0.2;fill:#ffffff" d="M 12,2 C 6.46,2 2,6.46 2,12 2,12.084 2.004,12.1665 2.00585,12.25 2.1382,6.827 6.544,2.5 11.99985,2.5 c 5.45585,0 9.862,4.32695 9.994,9.75 0.002,-0.08343 0.0059,-0.166065 0.0059,-0.25 0,-5.54 -4.46,-10 -10,-10 z"/>
 <path style="opacity:0.1" d="m 18.880859,2.5063807 a 5.7284259,12.541044 37.877957 0 0 -0.486328,0.00195 5.7284259,12.541044 37.877957 0 0 -5.009765,2.1230469 C 12.934123,4.5515827 12.473712,4.5005213 12,4.5005213 c -4.418278,0 -8,3.581722 -8,7.9999997 0,0.524554 0.050107,1.036826 0.1464844,1.533203 C 4.0140726,13.389081 7.1135351,10.391196 8.5449219,9.3247401 A 5.7284259,12.541044 37.877957 0 0 8.328125,9.5923182 5.7284259,12.541044 37.877957 0 0 5.2773438,22.939974 5.7284259,12.541044 37.877957 0 0 7.7480469,23.465365 5.3639346,11.826881 36.749883 0 1 6.453125,22.961459 5.3639346,11.826881 36.749883 0 1 5.65625,17.348177 c 1.4618282,1.909975 3.7527705,3.152344 6.34375,3.152344 3.645852,-0.0026 6.828772,-2.469918 7.740234,-6 h -4.076172 c -0.635904,1.821303 -2.074299,2.999007 -3.664062,3 -1.898844,-0.003 -3.534295,-1.674399 -3.9140625,-4 H 15.917969 18 19.927734 c 0.04497,-0.331495 0.06911,-0.665484 0.07227,-1 0,-3.1146871 -1.784585,-5.8074204 -4.382812,-7.1289059 -0.991392,0.5243055 -2.030286,1.2648931 -3.0625,2.1914062 1.653993,0.2925257 3.017375,1.8431724 3.359374,3.9374997 H 8.40625 A 5.3639346,11.826881 36.749883 0 1 9.2832031,10.248568 5.3639346,11.826881 36.749883 0 1 20.644531,4.0376307 5.3639346,11.826881 36.749883 0 1 21.818359,6.9536463 5.7284259,12.541044 37.877957 0 0 20.582031,3.0708338 5.7284259,12.541044 37.877957 0 0 18.880859,2.5063807 Z"/>
 <path style="fill:#60ab1a" d="M 18.394332,2.0082867 A 5.7284259,12.541044 37.877957 0 0 8.3272198,9.0920949 5.7284259,12.541044 37.877957 0 0 5.2772328,22.44002 5.7284259,12.541044 37.877957 0 0 7.7486147,22.965279 5.3639346,11.826881 36.749883 0 1 6.4539347,22.461564 5.3639346,11.826881 36.749883 0 1 9.2823287,9.7476419 5.3639346,11.826881 36.749883 0 1 20.644121,3.5368709 5.3639346,11.826881 36.749883 0 1 21.818771,6.453492 5.7284259,12.541044 37.877957 0 0 20.581541,2.5704775 5.7284259,12.541044 37.877957 0 0 18.394332,2.0082867 Z"/>
 <path style="fill:#60ab1a" d="M 12 4 C 7.581722 4 4 7.581722 4 12 C 4 12.524554 4.0501071 13.036826 4.1464844 13.533203 C 3.9838372 12.74136 8.742198 8.3458196 9.2304688 8.4179688 C 9.6876069 7.8656881 10.24207 7.4555903 10.861328 7.2246094 C 12.04102 6.0578813 13.264319 5.0983596 14.453125 4.3867188 C 13.679617 4.1376048 12.856348 4 12 4 z M 9.2304688 8.4179688 C 8.867633 8.8563202 8.5700947 9.3770639 8.359375 9.9667969 L 9.28125 8.4492188 C 9.2787114 8.4238331 9.2540942 8.4214597 9.2304688 8.4179688 z M 8.359375 9.9667969 L 4.890625 15.669922 C 6.2209398 18.241663 8.9048135 20 12 20 C 15.645852 19.9974 18.828772 17.530082 19.740234 14 L 15.664062 14 C 15.028158 15.821303 13.589763 16.999007 12 17 C 10.101156 16.996961 8.465705 15.325601 8.0859375 13 L 15.917969 13 L 18 13 L 19.927734 13 C 19.972707 12.668505 19.996843 12.334516 20 12 C 20 8.8853126 18.215415 6.1925793 15.617188 4.8710938 C 14.625797 5.3953993 13.586902 6.1359869 12.554688 7.0625 C 14.208682 7.3550257 15.572062 8.9056724 15.914062 11 L 8.0820312 11 C 8.1415254 10.635674 8.2420673 10.295101 8.359375 9.9667969 z"/>
</svg>

<svg xmlns="http://www.w3.org/2000/svg" width="24" height="24" version="1"><rect style="opacity:.2" width="20" height="20" x="2" y="2.5" rx="10" ry="10"/><rect style="fill:#e4e4e4" width="20" height="20" x="2" y="2" rx="10" ry="10"/><path style="opacity:.2;fill:#fff" d="M12 2C6.46 2 2 6.46 2 12c0 .084.004.166.006.25A9.976 9.976 0 0 1 12 2.5a9.976 9.976 0 0 1 9.994 9.75c.002-.083.006-.166.006-.25 0-5.54-4.46-10-10-10z"/><path style="opacity:.1" d="M18.88 2.506a5.728 12.541 37.878 0 0-.485.002 5.728 12.541 37.878 0 0-5.01 2.123c-.45-.08-.911-.13-1.385-.13a8 8 0 0 0-7.854 9.533c-.132-.645 2.968-3.643 4.399-4.71a5.728 12.541 37.878 0 0-.217.268 5.728 12.541 37.878 0 0-3.05 13.348 5.728 12.541 37.878 0 0 2.47.525 5.364 11.827 36.75 0 1-1.295-.504 5.364 11.827 36.75 0 1-.797-5.613c1.462 1.91 3.753 3.153 6.344 3.153a8 8 0 0 0 7.74-6h-4.076c-.636 1.82-2.074 2.999-3.664 3-1.899-.003-3.534-1.675-3.914-4H19.928c.045-.332.069-.666.072-1a7.994 7.994 0 0 0-4.383-7.13c-.991.525-2.03 1.266-3.062 2.192 1.654.293 3.017 1.843 3.36 3.938H8.405a5.364 11.827 36.75 0 1 .877-1.252 5.364 11.827 36.75 0 1 11.362-6.211 5.364 11.827 36.75 0 1 1.173 2.916 5.728 12.541 37.878 0 0-1.236-3.883 5.728 12.541 37.878 0 0-1.701-.565z"/><path style="fill:#60ab1a" d="M18.394 2.008A5.728 12.541 37.878 0 0 8.327 9.092a5.728 12.541 37.878 0 0-3.05 13.348 5.728 12.541 37.878 0 0 2.472.525 5.364 11.827 36.75 0 1-1.295-.503A5.364 11.827 36.75 0 1 9.282 9.748a5.364 11.827 36.75 0 1 11.362-6.211 5.364 11.827 36.75 0 1 1.175 2.916 5.728 12.541 37.878 0 0-1.237-3.883 5.728 12.541 37.878 0 0-2.188-.562z"/><path style="fill:#60ab1a" d="M12 4a8 8 0 0 0-7.854 9.533c-.162-.792 4.596-5.187 5.084-5.115.458-.552 1.012-.962 1.631-1.193 1.18-1.167 2.403-2.127 3.592-2.838A7.985 7.985 0 0 0 12 4zM9.23 8.418c-.362.438-.66.96-.87 1.549l.921-1.518c-.002-.025-.027-.028-.05-.031zm-.87 1.549L4.89 15.67A7.999 7.999 0 0 0 12 20a8 8 0 0 0 7.74-6h-4.076c-.636 1.821-2.074 2.999-3.664 3-1.899-.003-3.534-1.674-3.914-4H19.928A8 8 0 0 0 20 12a7.994 7.994 0 0 0-4.383-7.129c-.991.524-2.03 1.265-3.062 2.191 1.654.293 3.017 1.844 3.36 3.938H8.081c.06-.364.16-.705.277-1.033z"/></svg>
